!!!OTL: Morgenlied.
!!!OTL-incipit:DU ALLER WESEN VATER
!!!COM: H. G. Naegeli
!!!ARE: Europa, Mitteleuropa, Deutschland
!!!SCT: F0266
!!!TXL: @@DE
!!!YEM: Copyright 1995, estate of Helmut Schaffrath.
**kern	**text
*ICvox	*
*clefG2	*
*M4/4	*
*met(c)	*
*k[f#c#]	*
*D:	*
!LO:TX:a:t=Mäßig langsam.	!
{4f#	1._Du
=1	=1
4a	al-
4f#	-ler
4b/	Weſen
4b/	.
=2	=2
2a	Va-
4f#}	-ter,
{4dd/	hörſt
=3	=3
4cc#/	deiner
4b/	.
4ee/	Kinder
4g#	.
=4	=4
2a	Flehn.
4r}	.
{4a	Durch
=5	=5
4.cc#/	Tugend,
8ee/	.
4dd/	wie
4ff#/	durch
=6	=6
(4ee/	Lie-
4g)	.
4f#}	-der,
{4b/	laß'
=7	=7
4a	uns
8.dd/L	dein
16eeJ	.
4ff#/	Lob
4ee/	er-
=8	=8
2dd/	-höh'n!
4r}	.
==	==
!!!AGN: Jugend - Lied, Belehrung, religioes; Morgen - Lied
!!!ONB: ESAC (Essen Associative Code) Database: FINK
!!!AMT: simple quadruple
!!!AIN: vox
!!!EED: Helmut Schaffrath
!!!EEV: 1.0
!!!GTL: Jugendlieder
!!Text: F. W. Jung
!!!source: Musikalischer Hausschatz der Deutschen. Eine Sammlung von über 1000 Liedern und Gesängen mit Singstimmen und Klavierbegleitung. Leipzig, Litterarisches Verlags-Haus.
!!!page: 160
!!!URL-scan: https://www.digitale-sammlungen.de/en/view/bsb11144622?page=158,159
!!!ENC: Anna Maria Matuszewska
!!!EEV: 2024/29/07
*-	*-